!!!OTL-incipit: ES IST EIN WIRTHSHAUS AN DEM RHEIN
!!!ARE: Europa, Mitteleuropa, Deutschland, Rheinland
!!!SCT: Z0014
!!!TXL: @@DE
!!!YEM: Copyright 1995, estate of Helmut Schaffrath.
**kern	**text
*ICvox	*
!! Mixed meters:  2/4; 3/8
*M2/4	*
*k[b-]	*
*F:	*
=1	=1
!LO:TX:a:t=Rheinländisch.	!
{4c	Es
8f	iſt
8a	ein
=2	=2
4.cc	Wirthshaus
8a	.
=3	=3
*M3/8	*
8g	an
(8aL	dem
8gJ)	.
=4	=4
4.f}	Rhein,
=5	=5
*M2/4	*
{4ff	da
8ee	kehren
8dd	.
=6	=6
4cc	al-
4cc	-le
=7	=7
*M3/8	*
8b-	Fuhrleut
(8ddL	.
8ccJ)	.
=8	=8
4.cc}	ein,
=9	=9
*M2/4	*
{4c	Es
8f	iſt
8a	ein
=10	=10
4.cc	Wirthshaus
8a	.
=11	=11
*M3/8	*
8g	an
(8aL	dem
8gJ)	.
=12	=12
4.f}	Rhein,
=13	=13
*M2/4	*
{4ff	da
8ee	kehren
8dd	.
=14	=14
4cc	al-
4cc	-le
=15	=15
*M3/8	*
8b-	Fuhrleut
(8ddL	.
8ccJ)	.
=16	=16
4.cc	ein,
=17	=17
*M2/4	*
4r}	.
{4cc	d'Frau
=18	=18
8aL	Wir-
8ccJ	.
16cc	-thin
16cc	ſitʒt
16cc	hinter
(16cc	.
=19	=19
8ff)	dem
(8ff	O-
8dd)	.
8dd}	-fen,
=20	=20
{8dd	d'Fuhrleut
8dd	.
(16ddL	ſiʒ-
16ffJ)	.
(16eeL	-ʒen
16ddJ)	.
=21	=21
8dd	an
8cc	dem
8cc}	Tiſch,
{8cc	den
=22	=22
8cc	Wein
8cc	will
(16ddL	Nie-
16ccJ)	.
(16b-\L	-mand
16aJ)	.
=23	=23
4b-	ho-
4cc	.
=24	=24
4f	-len.
4r	.
=25	=25
4r}	.
{4cc	d'Frau
=26	=26
8aL	Wir-
8ccJ	.
16cc	-thin
16cc	ſitʒt
16cc	hinter
(16cc	.
=27	=27
8ff)	dem
(8ff	O-
8dd)	.
8dd}	-fen,
=28	=28
{8dd	d'Fuhrleut
8dd	.
(16ddL	ſiʒ-
16ffJ)	.
(16eeL	-ʒen
16ddJ)	.
=29	=29
8dd	an
8cc	dem
8cc}	Tiſch,
{8cc	den
=30	=30
8cc	Wein
8cc	will
(16ddL	Nie-
16ccJ)	.
(16b-\L	-mand
16aJ)	.
=31	=31
4b-	ho-
4cc	.
=32	=32
4f	-len.
4r}	.
==	==
!!!AGN: Sagen - Lied, Romanze
!!!ONB: ESAC (Essen Associative Code) Database: ZUCCAL
!!!AMT: irregular
!!!AIN: vox
!!!EED: Helmut Schaffrath
!!!EEV: 1.0
!!!GTL: I. Ernste Romanzen und Sagen.
!!!URL-scan: https://www.digitale-sammlungen.de/de/view/bsb11160571?page=37
!!!ENC: Anna Maria Matuszewska
!!!EEV: 2025/01/23
*-	*-
